fs/text_bullet_list_tree_24_regular.svg

<svg viewBox="0 0 24 24" fill="none" xmlns="http://www.w3.org/2000/svg" height="1em" width="1em">
  <path d="M7.24929 17.5C7.93925 17.5 8.49858 18.0593 8.49858 18.7493C8.49858 19.4393 7.93925 19.9986 7.24929 19.9986C6.55933 19.9986 6 19.4393 6 18.7493C6 18.0593 6.55933 17.5 7.24929 17.5ZM10.75 18H21.25C21.6642 18 22 18.3358 22 18.75C22 19.1297 21.7178 19.4435 21.3518 19.4932L21.25 19.5H10.75C10.3358 19.5 10 19.1642 10 18.75C10 18.3703 10.2822 18.0565 10.6482 18.0068L10.75 18H21.25H10.75ZM3.24929 11C3.93925 11 4.49858 11.5593 4.49858 12.2493C4.49858 12.9393 3.93925 13.4986 3.24929 13.4986C2.55933 13.4986 2 12.9393 2 12.2493C2 11.5593 2.55933 11 3.24929 11ZM6.75 11.5H21.25C21.6642 11.5 22 11.8358 22 12.25C22 12.6297 21.7178 12.9435 21.3518 12.9932L21.25 13H6.75C6.33579 13 6 12.6642 6 12.25C6 11.8703 6.28215 11.5565 6.64823 11.5068L6.75 11.5H21.25H6.75ZM3.24929 4.5C3.93925 4.5 4.49858 5.05933 4.49858 5.74929C4.49858 6.43925 3.93925 6.99858 3.24929 6.99858C2.55933 6.99858 2 6.43925 2 5.74929C2 5.05933 2.55933 4.5 3.24929 4.5ZM6.75 5H21.25C21.6642 5 22 5.33579 22 5.75C22 6.1297 21.7178 6.44349 21.3518 6.49315L21.25 6.5H6.75C6.33579 6.5 6 6.16421 6 5.75C6 5.3703 6.28215 5.05651 6.64823 5.00685L6.75 5H21.25H6.75Z" fill="#212121"/>
</svg>

<svg viewBox="0 0 24 24" fill="none" xmlns="http://www.w3.org/2000/svg" height="1em" width="1em">
  <path d="M7.25 17.5a1.25 1.25 0 1 1 0 2.499 1.25 1.25 0 0 1 0-2.499Zm3.5.5h10.5a.75.75 0 0 1 .102 1.493l-.102.007h-10.5a.75.75 0 0 1-.102-1.493L10.75 18h10.5-10.5Zm-7.5-7a1.25 1.25 0 1 1 0 2.499 1.25 1.25 0 0 1 0-2.499Zm3.5.5h14.5a.75.75 0 0 1 .102 1.493L21.25 13H6.75a.75.75 0 0 1-.102-1.493l.102-.007h14.5-14.5Zm-3.5-7a1.25 1.25 0 1 1 0 2.499 1.25 1.25 0 0 1 0-2.499Zm3.5.5h14.5a.75.75 0 0 1 .102 1.493l-.102.007H6.75a.75.75 0 0 1-.102-1.493L6.75 5h14.5-14.5Z" fill="#212121"/>
</svg>
